images/chn.svg

<svg width="2642" height="1487" xmlns="http://www.w3.org/2000/svg" xml:space="preserve" overflow="hidden"><defs><clipPath id="a"><path d="M460 491h2642v1487H460z"/></clipPath></defs><g clip-path="url(#a)" transform="translate(-460 -491)"><path fill="#FFF" d="M461 492h2639v1484H461z"/><path d="M591.5 1727.56h2458m-2458-102.01h2458m-2458-101h2458m-2458-102h2458m-2458-101.01h2458m-2458-102h2458m-2458-101h2458m-2458-102.01h2458m-2458-101h2458m-2458-102.003h2458m-2458-101.003h2458M591.5 610.5h2458M591.5 1829.5h2458" stroke="#D9D9D9" stroke-width="3.438" stroke-linejoin="round" stroke-miterlimit="10" fill="none"/><path d="m899 1697 615.05-293.95 614.02-41.01L2742 1301" stroke="#5B9BD5" stroke-width="10.313" stroke-linecap="round" stroke-linejoin="round" stroke-miterlimit="10" fill="none"/><g stroke="#5B9BD5" stroke-width="3.438" stroke-linejoin="round" stroke-miterlimit="10" fill="#5B9BD5"><path d="M910.615 1697.06c0 6.08-4.925 11-11 11s-11-4.92-11-11c0-6.07 4.925-11 11-11s11 4.93 11 11ZM1524.61 1402.06c0 6.08-4.92 11-11 11-6.07 0-10.99-4.92-10.99-11 0-6.07 4.92-11 10.99-11 6.08 0 11 4.93 11 11ZM2139.61 1361.06c0 6.08-4.92 11-11 11-6.07 0-10.99-4.92-10.99-11 0-6.07 4.92-11 10.99-11 6.08 0 11 4.93 11 11ZM2753.61 1301.06c0 6.08-4.92 11-11 11-6.07 0-11-4.92-11-11 0-6.07 4.93-11 11-11 6.08 0 11 4.93 11 11Z"/></g><text fill="#595959" font-family="Calibri,Calibri_MSFontService,sans-serif" font-weight="400" font-size="41" transform="translate(511.807 1841)">90</text><text fill="#595959" font-family="Calibri,Calibri_MSFontService,sans-serif" font-weight="400" font-size="41" transform="translate(511.807 1739)">95</text><text fill="#595959" font-family="Calibri,Calibri_MSFontService,sans-serif" font-weight="400" font-size="41" transform="translate(490.907 1638)">100</text><text fill="#595959" font-family="Calibri,Calibri_MSFontService,sans-serif" font-weight="400" font-size="41" transform="translate(490.907 1536)">105</text><text fill="#595959" font-family="Calibri,Calibri_MSFontService,sans-serif" font-weight="400" font-size="41" transform="translate(490.907 1434)">110</text><text fill="#595959" font-family="Calibri,Calibri_MSFontService,sans-serif" font-weight="400" font-size="41" transform="translate(490.907 1333)">115</text><text fill="#595959" font-family="Calibri,Calibri_MSFontService,sans-serif" font-weight="400" font-size="41" transform="translate(490.907 1231)">120</text><text fill="#595959" font-family="Calibri,Calibri_MSFontService,sans-serif" font-weight="400" font-size="41" transform="translate(490.907 1130)">125</text><text fill="#595959" font-family="Calibri,Calibri_MSFontService,sans-serif" font-weight="400" font-size="41" transform="translate(490.907 1028)">130</text><text fill="#595959" font-family="Calibri,Calibri_MSFontService,sans-serif" font-weight="400" font-size="41" transform="translate(490.907 927)">135</text><text fill="#595959" font-family="Calibri,Calibri_MSFontService,sans-serif" font-weight="400" font-size="41" transform="translate(490.907 825)">140</text><text fill="#595959" font-family="Calibri,Calibri_MSFontService,sans-serif" font-weight="400" font-size="41" transform="translate(490.907 724)">145</text><text fill="#595959" font-family="Calibri,Calibri_MSFontService,sans-serif" font-weight="400" font-size="41" transform="translate(490.907 622)">150</text><text fill="#595959" font-family="Calibri,Calibri_MSFontService,sans-serif" font-weight="400" font-size="41" transform="translate(857.877 1894)">312a</text><text fill="#595959" font-family="Calibri,Calibri_MSFontService,sans-serif" font-weight="400" font-size="41" transform="translate(1472.34 1894)">403a</text><text fill="#595959" font-family="Calibri,Calibri_MSFontService,sans-serif" font-weight="400" font-size="41" transform="translate(2075.39 1894)">404b1</text><text fill="#595959" font-family="Calibri,Calibri_MSFontService,sans-serif" font-weight="400" font-size="41" transform="translate(2701.26 1894)">404a</text><text fill="#595959" font-family="DengXian,DengXian_MSFontService,sans-serif" font-weight="400" font-size="64" transform="translate(1716.46 565)">语文</text><path d="M1702 1928h88" stroke="#5B9BD5" stroke-width="10.313" stroke-linecap="round" stroke-linejoin="round" stroke-miterlimit="10" fill="none"/><path d="M1757 1928c0 6.07-4.92 11-11 11-6.07 0-11-4.93-11-11 0-6.08 4.93-11 11-11 6.08 0 11 4.92 11 11Z" stroke="#5B9BD5" stroke-width="3.438" stroke-linejoin="round" stroke-miterlimit="10" fill="#5B9BD5"/><text fill="#595959" font-family="DengXian,DengXian_MSFontService,sans-serif" font-weight="400" font-size="41" transform="translate(1799.53 1938)">分数</text><path stroke="#D9D9D9" stroke-width="3.438" stroke-linejoin="round" stroke-miterlimit="10" fill="none" d="M461.5 492.5h2639v1484h-2639z"/></g></svg>

<svg width="2642" height="1487" xmlns="http://www.w3.org/2000/svg" xmlns:xlink="http://www.w3.org/1999/xlink" xml:space="preserve" overflow="hidden"><defs><clipPath id="clip0"><rect x="460" y="491" width="2642" height="1487"/></clipPath></defs><g clip-path="url(#clip0)" transform="translate(-460 -491)"><rect x="461" y="492" width="2639" height="1484" fill="#FFFFFF"/><g><path d="M591.5 1727.56 3049.5 1727.56M591.5 1625.55 3049.5 1625.55M591.5 1524.55 3049.5 1524.55M591.5 1422.55 3049.5 1422.55M591.5 1321.54 3049.5 1321.54M591.5 1219.54 3049.5 1219.54M591.5 1118.54 3049.5 1118.54M591.5 1016.53 3049.5 1016.53M591.5 915.53 3049.5 915.53M591.5 813.527 3049.5 813.527M591.5 712.524 3049.5 712.524M591.5 610.5 3049.5 610.5" stroke="#D9D9D9" stroke-width="3.4375" stroke-linejoin="round" stroke-miterlimit="10" fill="none"/></g><g><path d="M591.5 1829.5 3049.5 1829.5" stroke="#D9D9D9" stroke-width="3.4375" stroke-linejoin="round" stroke-miterlimit="10" fill="none" fill-rule="evenodd"/></g><g><path d="M899 1697 1514.05 1403.05 2128.07 1362.04 2742 1301" stroke="#5B9BD5" stroke-width="10.3125" stroke-linecap="round" stroke-linejoin="round" stroke-miterlimit="10" fill="none"/></g><g><path d="M910.615 1697.06C910.615 1703.14 905.69 1708.06 899.615 1708.06 893.54 1708.06 888.615 1703.14 888.615 1697.06 888.615 1690.99 893.54 1686.06 899.615 1686.06 905.69 1686.06 910.615 1690.99 910.615 1697.06Z" stroke="#5B9BD5" stroke-width="3.4375" stroke-linejoin="round" stroke-miterlimit="10" fill="#5B9BD5"/><path d="M1524.61 1402.06C1524.61 1408.14 1519.69 1413.06 1513.61 1413.06 1507.54 1413.06 1502.62 1408.14 1502.62 1402.06 1502.62 1395.99 1507.54 1391.06 1513.61 1391.06 1519.69 1391.06 1524.61 1395.99 1524.61 1402.06Z" stroke="#5B9BD5" stroke-width="3.4375" stroke-linejoin="round" stroke-miterlimit="10" fill="#5B9BD5"/><path d="M2139.61 1361.06C2139.61 1367.14 2134.69 1372.06 2128.61 1372.06 2122.54 1372.06 2117.62 1367.14 2117.62 1361.06 2117.62 1354.99 2122.54 1350.06 2128.61 1350.06 2134.69 1350.06 2139.61 1354.99 2139.61 1361.06Z" stroke="#5B9BD5" stroke-width="3.4375" stroke-linejoin="round" stroke-miterlimit="10" fill="#5B9BD5"/><path d="M2753.61 1301.06C2753.61 1307.14 2748.69 1312.06 2742.61 1312.06 2736.54 1312.06 2731.61 1307.14 2731.61 1301.06 2731.61 1294.99 2736.54 1290.06 2742.61 1290.06 2748.69 1290.06 2753.61 1294.99 2753.61 1301.06Z" stroke="#5B9BD5" stroke-width="3.4375" stroke-linejoin="round" stroke-miterlimit="10" fill="#5B9BD5"/></g><g><text fill="#595959" font-family="Calibri,Calibri_MSFontService,sans-serif" font-weight="400" font-size="41" transform="matrix(1 0 0 1 511.807 1841)">90</text></g><g><text fill="#595959" font-family="Calibri,Calibri_MSFontService,sans-serif" font-weight="400" font-size="41" transform="matrix(1 0 0 1 511.807 1739)">95</text></g><g><text fill="#595959" font-family="Calibri,Calibri_MSFontService,sans-serif" font-weight="400" font-size="41" transform="matrix(1 0 0 1 490.907 1638)">100</text></g><g><text fill="#595959" font-family="Calibri,Calibri_MSFontService,sans-serif" font-weight="400" font-size="41" transform="matrix(1 0 0 1 490.907 1536)">105</text></g><g><text fill="#595959" font-family="Calibri,Calibri_MSFontService,sans-serif" font-weight="400" font-size="41" transform="matrix(1 0 0 1 490.907 1434)">110</text></g><g><text fill="#595959" font-family="Calibri,Calibri_MSFontService,sans-serif" font-weight="400" font-size="41" transform="matrix(1 0 0 1 490.907 1333)">115</text></g><g><text fill="#595959" font-family="Calibri,Calibri_MSFontService,sans-serif" font-weight="400" font-size="41" transform="matrix(1 0 0 1 490.907 1231)">120</text></g><g><text fill="#595959" font-family="Calibri,Calibri_MSFontService,sans-serif" font-weight="400" font-size="41" transform="matrix(1 0 0 1 490.907 1130)">125</text></g><g><text fill="#595959" font-family="Calibri,Calibri_MSFontService,sans-serif" font-weight="400" font-size="41" transform="matrix(1 0 0 1 490.907 1028)">130</text></g><g><text fill="#595959" font-family="Calibri,Calibri_MSFontService,sans-serif" font-weight="400" font-size="41" transform="matrix(1 0 0 1 490.907 927)">135</text></g><g><text fill="#595959" font-family="Calibri,Calibri_MSFontService,sans-serif" font-weight="400" font-size="41" transform="matrix(1 0 0 1 490.907 825)">140</text></g><g><text fill="#595959" font-family="Calibri,Calibri_MSFontService,sans-serif" font-weight="400" font-size="41" transform="matrix(1 0 0 1 490.907 724)">145</text></g><g><text fill="#595959" font-family="Calibri,Calibri_MSFontService,sans-serif" font-weight="400" font-size="41" transform="matrix(1 0 0 1 490.907 622)">150</text></g><g><text fill="#595959" font-family="Calibri,Calibri_MSFontService,sans-serif" font-weight="400" font-size="41" transform="matrix(1 0 0 1 857.877 1894)">312a</text></g><g><text fill="#595959" font-family="Calibri,Calibri_MSFontService,sans-serif" font-weight="400" font-size="41" transform="matrix(1 0 0 1 1472.34 1894)">403a</text></g><g><text fill="#595959" font-family="Calibri,Calibri_MSFontService,sans-serif" font-weight="400" font-size="41" transform="matrix(1 0 0 1 2075.39 1894)">404b1</text></g><g><text fill="#595959" font-family="Calibri,Calibri_MSFontService,sans-serif" font-weight="400" font-size="41" transform="matrix(1 0 0 1 2701.26 1894)">404a</text></g><g><text fill="#595959" font-family="DengXian,DengXian_MSFontService,sans-serif" font-weight="400" font-size="64" transform="matrix(1 0 0 1 1716.46 565)">语文</text></g><g><path d="M1702 1928 1790 1928" stroke="#5B9BD5" stroke-width="10.3125" stroke-linecap="round" stroke-linejoin="round" stroke-miterlimit="10" fill="none" fill-rule="evenodd"/></g><g><path d="M1757 1928C1757 1934.07 1752.08 1939 1746 1939 1739.93 1939 1735 1934.07 1735 1928 1735 1921.92 1739.93 1917 1746 1917 1752.08 1917 1757 1921.92 1757 1928Z" stroke="#5B9BD5" stroke-width="3.4375" stroke-linejoin="round" stroke-miterlimit="10" fill="#5B9BD5"/></g><g><g><text fill="#595959" font-family="DengXian,DengXian_MSFontService,sans-serif" font-weight="400" font-size="41" transform="matrix(1 0 0 1 1799.53 1938)">分数</text></g></g><rect x="461.5" y="492.5" width="2639" height="1484" stroke="#D9D9D9" stroke-width="3.4375" stroke-linejoin="round" stroke-miterlimit="10" fill="none"/></g></svg>
